!!!OTL: 775. Der Todesschlummer.
!!!COM: Georg Heinr. Warneke
!!!ODT: 1783
!!!ARE: Europa, Mitteleuropa, Deutschland
!!!SCT: B0775
!!!TXL: @@DE
!!!YEM: Copyright 1995, estate of Helmut Schaffrath.
**kern	**text
*ICvox	*
*Ivox	*
*clefG2	*
*M3/4	*
*k[b-]	*
*F:	*
=1	=1
!LO:TX:a:t=Langſam.	!
{2a	Ruh-
4g	-ig
=2	=2
(4g	iſt
4f)	.
4f	des
=3	=3
2cc	To-
4b-	-des
=4	=4
(<4b-	Schlum-
4a)	.
4a}	-mer
=5	=5
{(4ff	und
4ee)	.
4dd	der
=6	=6
(4cc	Schooß
4b-)	.
8aL	der
8ccJ	.
=7	=7
(4cc	Er-
4b-)	.
4a	-de
=8	=8
(4aqq	.
2.g)}	kühl.
=9	=9
{2a	Da
4g	ſtört
=10	=10
(4g	unſ'-
4f)	.
4f	-re
=11	=11
2cc	Ruh'
4b-	kein
=12	=12
(<4b-	Kum-
4a)	.
4a}	-mer,
=13	=13
{(4ff	nicht
4ee)	.
4dd	der
=14	=14
(4cc	Lei-
4b-)	.
8aL	-den-
8ccJ	.
=15	=15
(4cc	-ſchaf-
4b-)	.
4a	-ten
=16	=16
(4aqq	.
2.g)}	Spiel.
=17	=17
{2g	Unſ'-
4a	-re
=18	=18
(<4b-	Sor-
4a)	.
4g	-gen,
=19	=19
2a	groß
4cc	und
=20	=20
2ff	klein,
4r}	.
=21	=21
{2cc	ſchlummern
4ee	.
=22	=22
(4gg	al-
4ee)	.
8ccL	-le
8b-J	.
=23	=23
2a	mit
4cc	uns
=24	=24
2ff	ein,
4r}	.
=25	=25
{2dd	ſchlummern
4ee	.
=26	=26
2ff	al-
4b-	-le
=27	=27
2a	mit
4g	uns
=28	=28
2f	ein.
4r}	.
==	==
!!!AGN: Trost - Lied, Tod, religioes
!!!ONB: ESAC (Essen Associative Code) Database: BOEHME
!!!AMT: simple triple
!!!AIN: vox
!!!EED: Helmut Schaffrath
!!!EEV: 1.0
!!!RDF**kern: < = below
!!!GTL: Religioese Lieder
!!Aus: Lieder mit Melodien fürs Clavier von Georg Heinr. Warneke. Göttingen 1783.
!!@@COMMENT:"Gedicht ʒuerſt im "Göttinger Muſenalmanach für 1782 S. 135, unterʒeichnet Aemilia".
!!Als Verfaſſerin galt lange Ʒeit Emilie Harms. Wenn in Finks Hausſchatʒ 953 als Dichterin
!!Emilie v. Berlepſch angegeben iſt, ſo führt das wieder auf Emilie Harms ʒurück, deren erſter
!!Mann Berlepſch hieß. Nach Hoffmann (volksthümliche Lieder, Nachtrag ʒu 747, ſoll das Lied von
!!Dorothea Charlotte Eliſabeth Spangenberg, geb. Wehrs 1781 verfaßt ſein. Vielleicht beʒieht
!!ſich letʒtere Angabe auf die Ʒuſatʒſtrophe, welche beißt: Möchte bald die Stunde kommen, wo
!!mein ganʒ befreiter Geiſt, von der Erde weggenommen, dich nun ewig glücklich preiſt! Ʒittre, Seelt,
!!länger nicht, wenn des Körpers Bau ʒerbricht!* - Das Lied wurde bis ʒur Neuʒeit an den
!!Gräbern geſungen und ʒwar nach verſchiedenen Melodien von G. H. Warneke in Göttingen
!!1783 ſälteſte und beſte! , von Adam Erk 1801, Türk in Halle 1810, G. S. Spieker 1810, C. G. Tag u. A."
!!@@END:
!!!URL-scan: https://archive.org/details/BoehmeVtLieder1895/page/n617/mode/2up
!!!ENC: Anna Maria Matuszewska
!!!EEV: 2024/19/07
*-	*-
